X:37
T:Going for Water
B:Terry "Cuz" Teahan "Sliabh Luachra on Parade" 1980
Z:Patrick Cavanagh
M:12/8
L:1/8
R:Slide
K:D
A | F2A d2f F2A d2f | e2d cBA e2d cBA | 
F2A d2f F2A d2f | e2d cBA efe d2 :| 
e | faf d2d d2f agf | e2e BAB e2f gfe | 
faf d2d d2f agf | e2d cBA f2e d2 :|| 

